epam-assets/icon-sources/18/action-trophy.svg

<svg width="18" height="18" viewBox="0 0 18 18" fill="none" xmlns="http://www.w3.org/2000/svg">
<g id="18/action-trophy">
<path id="icon" fill-rule="evenodd" clip-rule="evenodd" d="M12.75 3V1.5H5.25V3H2.25V6.75C2.25 8.40685 3.59315 9.75 5.25 9.75H5.32501C5.62328 11.2193 6.78065 12.3767 8.25 12.675V15H6V16.5H12V15H9.75V12.675C11.2193 12.3767 12.3767 11.2193 12.675 9.75H12.75C14.4069 9.75 15.75 8.40685 15.75 6.75V3H12.75ZM11.4375 2.8125H6.5625V9C6.5625 10.3462 7.65381 11.4375 9 11.4375C10.3462 11.4375 11.4375 10.3462 11.4375 9V2.8125ZM12.75 4.3125V8.4375C13.682 8.4375 14.4375 7.68198 14.4375 6.75V4.3125H12.75ZM3.5625 4.3125H5.25V8.4375C4.31802 8.4375 3.5625 7.68198 3.5625 6.75V4.3125Z" fill="#6C6F80"/>
</g>
</svg>

<svg xmlns="http://www.w3.org/2000/svg" width="18" height="18" fill="none" viewBox="0 0 18 18">
  <path fill="#6C6F80" fill-rule="evenodd" d="M12.75 3V1.5h-7.5V3h-3v3.75a3 3 0 0 0 3 3h.075a3.755 3.755 0 0 0 2.925 2.925V15H6v1.5h6V15H9.75v-2.325a3.755 3.755 0 0 0 2.925-2.925h.075a3 3 0 0 0 3-3V3h-3Zm-1.313-.188H6.564V9a2.437 2.437 0 1 0 4.875 0V2.812Zm1.313 1.5v4.125c.932 0 1.688-.755 1.688-1.687V4.312H12.75Zm-9.188 0H5.25v4.125A1.688 1.688 0 0 1 3.562 6.75V4.312Z" clip-rule="evenodd"/>
</svg>
